src/img/icon-menu.svg

<svg clip-rule="evenodd" fill-rule="evenodd" stroke-linejoin="round" stroke-miterlimit="2" viewBox="0 0 36 36" xmlns="http://www.w3.org/2000/svg"><g transform="scale(1.5)"><path d="m2.25 18.753h19.5c.414 0 .75-.336.75-.75s-.336-.75-.75-.75h-19.5c-.414 0-.75.336-.75.75s.336.75.75.75z"/><path d="m2.25 12.753h19.5c.414 0 .75-.336.75-.75s-.336-.75-.75-.75h-19.5c-.414 0-.75.336-.75.75s.336.75.75.75z"/><path d="m2.25 6.753h19.5c.414 0 .75-.336.75-.75s-.336-.75-.75-.75h-19.5c-.414 0-.75.336-.75.75s.336.75.75.75z"/></g></svg>

<?xml version="1.0" encoding="UTF-8" standalone="no"?>
<!DOCTYPE svg PUBLIC "-//W3C//DTD SVG 1.1//EN" "http://www.w3.org/Graphics/SVG/1.1/DTD/svg11.dtd">
<svg width="100%" height="100%" viewBox="0 0 36 36" version="1.1" xmlns="http://www.w3.org/2000/svg" xmlns:xlink="http://www.w3.org/1999/xlink" xml:space="preserve" xmlns:serif="http://www.serif.com/" style="fill-rule:evenodd;clip-rule:evenodd;stroke-linejoin:round;stroke-miterlimit:2;">
    <g transform="matrix(1.5,0,0,1.5,0,0)">
        <path d="M2.25,18.753L21.75,18.753C22.164,18.753 22.5,18.417 22.5,18.003C22.5,17.589 22.164,17.253 21.75,17.253L2.25,17.253C1.836,17.253 1.5,17.589 1.5,18.003C1.5,18.417 1.836,18.753 2.25,18.753Z"/>
        <path d="M2.25,12.753L21.75,12.753C22.164,12.753 22.5,12.417 22.5,12.003C22.5,11.589 22.164,11.253 21.75,11.253L2.25,11.253C1.836,11.253 1.5,11.589 1.5,12.003C1.5,12.417 1.836,12.753 2.25,12.753Z"/>
        <path d="M2.25,6.753L21.75,6.753C22.164,6.753 22.5,6.417 22.5,6.003C22.5,5.589 22.164,5.253 21.75,5.253L2.25,5.253C1.836,5.253 1.5,5.589 1.5,6.003C1.5,6.417 1.836,6.753 2.25,6.753Z"/>
    </g>
</svg>
